X:24
T:Jim Keefe's
Z: id:dc-polka-19
M:2/4
L:1/8
K:A Major
z/|ea c/d/c/B/|Ac EB|cB Bc/e/|fe ce|!
ea c/d/c/B/|Ac EB|c/d/c/B/ cB|A2 A3/2:|!
B/|cB Bc/e/|fe cB|cB Bc/e/|fe ce|!
ea c/d/c/B/|Ac EB|c/d/c/B/ cB|A2 A3/2:|!

